usr/share/icons/biglinux-icons-material/32/actions/document-revert.svg

<svg version="1.1" viewBox="0 0 32 32" xmlns="http://www.w3.org/2000/svg">
 <style id="current-color-scheme" type="text/css">.ColorScheme-Text {
            color:#363636;
        }</style>
 <path class="ColorScheme-Text" d="m15 28h6.5c2.493 0 4.5-2.007 4.5-4.5s-2.007-4.5-4.5-4.5h-2.793l2.5-2.5-0.70703-0.70703-3.707 3.707 3.707 3.707 0.70703-0.70703-2.5-2.5h2.793c1.939 0 3.5 1.561 3.5 3.5s-1.561 3.5-3.5 3.5h-6.5z" fill="currentColor"/>
 <path class="ColorScheme-Text" d="m9 4c-1.662 0-3 1.338-3 3v18c0 1.662 1.338 3 3 3h6v-1h-6c-1.108 0-2-0.892-2-2v-18c0-1.108 0.892-2 2-2h9v4c0 1.662 1.338 3 3 3h4v4h1v-5l-7-7h-1zm10 1.4141 5.5859 5.5859h-3.5859c-1.108 0-2-0.892-2-2z" fill="currentColor"/>
</svg>

<svg xmlns="http://www.w3.org/2000/svg" viewBox="0 0 32 32"><style id="current-color-scheme" type="text/css">.ColorScheme-Text{color:#dedede}</style><path fill="currentColor" d="M15 28h6.5c2.493 0 4.5-2.007 4.5-4.5S23.993 19 21.5 19h-2.793l2.5-2.5-.707-.707-3.707 3.707 3.707 3.707.707-.707-2.5-2.5H21.5c1.939 0 3.5 1.56 3.5 3.5S23.439 27 21.5 27H15z" class="ColorScheme-Text"/><path fill="currentColor" d="M9 4C7.338 4 6 5.338 6 7v18c0 1.662 1.338 3 3 3h6v-1H9c-1.108 0-2-.892-2-2V7c0-1.108.892-2 2-2h9v4c0 1.662 1.338 3 3 3h4v4h1v-5l-7-7h-1zm10 1.414L24.586 11H21c-1.108 0-2-.892-2-2z" class="ColorScheme-Text"/></svg>
